X:113
M:6/8
L:1/8
Q:3/8=110
K:Bb
d2 c d2 c|B2 B Bcd|e2 d e2 d|c2 c c2 d|\
e2 e efg|gfe def|fed c2 d|B2 B B3:|
f2 f fdB|g2 g g3|e2 e ecA|f2 f f3|\
d2 c d2 c|B2 B Bcd|e2 d e2 d|c2 c c2 d|\
e2 e efg|gfe def|fed c2 d|B2 B B3|]

